X:154
T:Kinvara Reel*, The 
B:CRE2.219 (gan ainm)
F:file ID: cre.2/154kinv_R
C:Tommy Whelan
S:Eddie Moloney (Galway). Recorded by Frankie Gavin as "Eddie Moloney's #1".
Q:180
L:1/8
M:4/4
R:reel
K:G
ggga gB (3Bcd|g2 (3Bcd ea a2|ggga gB (3Bcd|e2 Ac BGGd|
g2 ga gdBd|gdBd ea a2|ggga gdBd|ecAc BGG||
D|GD (3Bcd GGGd|GDBd eA A2|GD (3Bcd g2 ge|fdcA AGGD|
GD (3Bcd G2 GD|GD (3Bcd eA A2|G2 dG (3Bcd eg|fdcA AGG||
D|G2 dG BGdG|G2 AG FDFA|G2 dG (3Bcd eg|fdcA AGGD|
G2 dG (3BAG dG|G2 dG FDFA|G2 dG (3Bcd eg|fdcA AG (3Bcd||

%%%

